<?xml version="1.0" encoding="UTF-8"?>
<map version="1.10" tiledversion="1.10.2" orientation="orthogonal" renderorder="right-down" width="20" height="30" tilewidth="32" tileheight="32" infinite="0" nextlayerid="5" nextobjectid="108">
 <tileset firstgid="1" source="../../../minitankdemo/assets/map1/tankSprite.tsx"/>
 <tileset firstgid="641" source="tankSprite1.tsx"/>
 <layer id="1" name="_tmLayerGroup " width="20" height="30">
  <data encoding="csv">
641,641,641,641,641,641,641,641,641,641,641,641,641,641,641,641,641,641,642,643,
681,681,681,681,681,681,681,681,681,681,681,681,681,681,681,681,681,641,642,643,
721,721,721,721,721,721,721,721,721,721,721,721,721,721,721,721,721,641,642,643,
641,642,643,643,643,643,643,643,643,643,643,643,643,643,643,643,643,643,643,643,
641,641,642,643,683,683,683,683,683,683,683,683,683,683,683,683,683,683,683,643,
641,642,643,643,723,723,723,723,723,723,723,723,723,723,723,723,723,723,641,642,
641,642,643,641,641,641,641,641,641,641,641,641,641,641,641,642,643,722,641,642,
641,642,641,641,641,641,641,641,641,642,643,643,643,643,643,641,641,642,641,642,
641,642,681,681,681,681,681,681,641,641,641,641,641,641,641,641,642,643,641,642,
641,642,721,641,641,642,643,643,643,643,643,643,643,643,643,643,643,643,641,642,
641,642,721,681,641,641,641,641,641,641,641,641,641,641,641,641,641,642,681,682,
641,642,721,721,641,641,641,641,641,641,641,641,641,641,641,641,641,641,721,722,
641,641,721,722,681,681,681,681,681,681,681,681,681,681,681,681,681,681,761,762,
681,681,721,722,721,721,721,721,721,721,641,641,641,641,642,643,644,721,801,802,
721,721,721,722,641,641,641,641,641,641,641,642,643,641,641,641,641,642,643,644,
961,961,961,962,963,964,961,961,961,961,961,961,961,962,963,961,962,961,962,963,
1001,1001,961,961,961,961,1001,1001,1001,1001,1001,1001,961,961,961,961,961,1001,1002,1003,
1041,1041,1001,1001,1001,1001,1041,1041,1041,1041,1041,1041,1001,1001,1001,961,1001,1041,1042,1043,
1081,1081,1041,1041,1041,1041,1081,1081,1081,1081,1081,1081,1041,1041,961,962,1041,1081,1082,1083,
961,962,963,964,964,964,964,964,964,964,964,964,964,964,964,964,1081,1081,1082,1083,
961,962,963,964,1004,1004,1004,1004,1004,1004,1004,1004,1004,1004,1004,1004,1081,1082,1083,1084,
961,962,963,964,1044,1044,1044,1044,1044,1044,1044,1044,1044,1044,1044,1044,1081,1082,1083,1084,
961,961,961,961,961,961,961,961,961,961,961,961,961,961,961,961,1081,1082,1083,1084,
1001,1001,1001,1001,1001,1001,1001,1001,1001,1001,1001,1001,1001,1001,961,961,1081,1082,1083,1084,
1041,1041,1041,1041,1041,1041,1041,1041,1041,1041,1041,1041,1041,961,1001,1001,1081,1082,1083,1084,
1081,1081,1081,1081,1081,1081,1081,1081,1081,1081,1081,1081,1081,1001,1041,961,1081,1082,1083,1084,
1041,1081,1082,1083,1084,1084,1084,1084,1044,1044,1044,1044,1044,1041,1081,961,1081,1082,1083,1084,
1081,1081,1081,1081,1081,1081,1082,1083,1084,1084,1084,1084,1084,1081,1081,1001,1081,1082,1083,1084,
1082,1083,1084,1084,1084,1084,1084,1084,1084,1084,1044,1044,1044,1044,1044,1041,1081,1081,1082,1083,
1081,1081,1081,1081,1081,1081,1081,1082,1083,1084,1084,1084,1084,1084,1084,1081,1081,1082,1083,1084
</data>
 </layer>
 <objectgroup id="2" name="_tmLayerObstacle">
  <object id="1" name="qiang" x="32.1515" y="0.393939" width="31.5895" height="31.1776"/>
  <object id="4" name="qiang" x="0.0840379" y="0.350594" width="31.5895" height="31.1776"/>
  <object id="5" name="qiang" x="64.3871" y="0.4112" width="31.5895" height="31.1776"/>
  <object id="6" name="qiang" x="96.5689" y="0.229382" width="31.5895" height="31.1776"/>
  <object id="7" name="qiang" x="128.539" y="-0.255467" width="31.5895" height="31.1776"/>
  <object id="8" name="qiang" x="192.539" y="0.0778667" width="31.5895" height="31.1776"/>
  <object id="9" name="qiang" x="160.872" y="-0.255467" width="31.5895" height="31.1776"/>
  <object id="10" name="qiang" x="256.212" y="0.227273" width="31.5895" height="31.1776"/>
  <object id="11" name="qiang" x="224.144" y="0.183928" width="31.5895" height="31.1776"/>
  <object id="12" name="qiang" x="288.447" y="0.244534" width="31.5895" height="31.1776"/>
  <object id="13" name="qiang" x="320.629" y="0.0627157" width="31.5895" height="31.1776"/>
  <object id="14" name="qiang" x="351.599" y="-0.422133" width="31.5895" height="31.1776"/>
  <object id="15" name="qiang" x="416.599" y="-0.0887996" width="31.5895" height="31.1776"/>
  <object id="16" name="qiang" x="383.932" y="0.577867" width="31.5895" height="31.1776"/>
  <object id="17" name="qiang" x="479.879" y="0.560606" width="31.5895" height="31.1776"/>
  <object id="18" name="qiang" x="447.811" y="0.517261" width="31.5895" height="31.1776"/>
  <object id="19" name="qiang" x="512.114" y="0.577867" width="31.5895" height="31.1776"/>
  <object id="20" name="qiang" x="544.296" y="0.396049" width="31.5895" height="31.1776"/>
  <object id="21" name="qiang" x="576.266" y="0.9112" width="31.5895" height="31.1776"/>
  <object id="23" name="qiang" x="609.266" y="0.577867" width="31.5895" height="31.1776"/>
  <object id="24" name="qiang" x="32.6817" y="926.561" width="31.5895" height="31.1776"/>
  <object id="25" name="qiang" x="0.614269" y="926.517" width="31.5895" height="31.1776"/>
  <object id="26" name="qiang" x="64.9173" y="926.578" width="31.5895" height="31.1776"/>
  <object id="27" name="qiang" x="97.0991" y="926.396" width="31.5895" height="31.1776"/>
  <object id="28" name="qiang" x="129.069" y="925.911" width="31.5895" height="31.1776"/>
  <object id="29" name="qiang" x="193.069" y="926.245" width="31.5895" height="31.1776"/>
  <object id="30" name="qiang" x="161.402" y="925.911" width="31.5895" height="31.1776"/>
  <object id="31" name="qiang" x="256.742" y="926.394" width="31.5895" height="31.1776"/>
  <object id="32" name="qiang" x="224.674" y="926.351" width="31.5895" height="31.1776"/>
  <object id="33" name="qiang" x="288.977" y="926.411" width="31.5895" height="31.1776"/>
  <object id="34" name="qiang" x="321.159" y="926.229" width="31.5895" height="31.1776"/>
  <object id="35" name="qiang" x="352.129" y="925.745" width="31.5895" height="31.1776"/>
  <object id="36" name="qiang" x="417.129" y="926.078" width="31.5895" height="31.1776"/>
  <object id="37" name="qiang" x="384.462" y="926.745" width="31.5895" height="31.1776"/>
  <object id="38" name="qiang" x="480.409" y="926.727" width="31.5895" height="31.1776"/>
  <object id="39" name="qiang" x="448.341" y="926.684" width="31.5895" height="31.1776"/>
  <object id="40" name="qiang" x="512.644" y="926.745" width="31.5895" height="31.1776"/>
  <object id="41" name="qiang" x="544.826" y="926.563" width="31.5895" height="31.1776"/>
  <object id="42" name="qiang" x="576.796" y="927.078" width="31.5895" height="31.1776"/>
  <object id="43" name="qiang" x="609.796" y="926.745" width="31.5895" height="31.1776"/>
  <object id="44" name="qiang" x="0.20525" y="32.4112" width="31.5895" height="31.1776"/>
  <object id="45" name="qiang" x="0.20525" y="63.4112" width="31.5895" height="31.1776"/>
  <object id="46" name="qiang" x="0.20525" y="94.4112" width="31.5895" height="31.1776"/>
  <object id="47" name="qiang" x="0.20525" y="156.411" width="31.5895" height="31.1776"/>
  <object id="48" name="qiang" x="0.20525" y="125.411" width="31.5895" height="31.1776"/>
  <object id="49" name="qiang" x="0.20525" y="187.411" width="31.5895" height="31.1776"/>
  <object id="50" name="qiang" x="-0.29475" y="218.911" width="31.5895" height="31.1776"/>
  <object id="51" name="qiang" x="0.20525" y="249.911" width="31.5895" height="31.1776"/>
  <object id="52" name="qiang" x="-0.29475" y="280.911" width="31.5895" height="31.1776"/>
  <object id="53" name="qiang" x="-0.29475" y="312.411" width="31.5895" height="31.1776"/>
  <object id="55" name="qiang" x="-0.29475" y="343.911" width="31.5895" height="31.1776"/>
  <object id="56" name="qiang" x="0.20525" y="374.911" width="31.5895" height="31.1776"/>
  <object id="57" name="qiang" x="0.20525" y="405.911" width="31.5895" height="31.1776"/>
  <object id="58" name="qiang" x="0.20525" y="437.411" width="31.5895" height="31.1776"/>
  <object id="59" name="qiang" x="608.122" y="32.9113" width="31.5895" height="31.1776"/>
  <object id="60" name="qiang" x="608.122" y="63.9113" width="31.5895" height="31.1776"/>
  <object id="61" name="qiang" x="608.122" y="94.9113" width="31.5895" height="31.1776"/>
  <object id="62" name="qiang" x="608.122" y="156.911" width="31.5895" height="31.1776"/>
  <object id="63" name="qiang" x="608.122" y="125.911" width="31.5895" height="31.1776"/>
  <object id="64" name="qiang" x="608.122" y="187.911" width="31.5895" height="31.1776"/>
  <object id="65" name="qiang" x="607.622" y="219.411" width="31.5895" height="31.1776"/>
  <object id="66" name="qiang" x="608.122" y="250.411" width="31.5895" height="31.1776"/>
  <object id="67" name="qiang" x="607.622" y="281.411" width="31.5895" height="31.1776"/>
  <object id="68" name="qiang" x="607.622" y="312.911" width="31.5895" height="31.1776"/>
  <object id="69" name="qiang" x="607.622" y="344.411" width="31.5895" height="31.1776"/>
  <object id="70" name="qiang" x="608.122" y="375.411" width="31.5895" height="31.1776"/>
  <object id="71" name="qiang" x="608.122" y="406.411" width="31.5895" height="31.1776"/>
  <object id="72" name="qiang" x="608.122" y="437.911" width="31.5895" height="31.1776"/>
  <object id="73" name="qiang" x="0.121917" y="488.578" width="31.5895" height="31.1776"/>
  <object id="74" name="qiang" x="0.121917" y="519.578" width="31.5895" height="31.1776"/>
  <object id="75" name="qiang" x="0.121917" y="550.578" width="31.5895" height="31.1776"/>
  <object id="76" name="qiang" x="0.121917" y="612.578" width="31.5895" height="31.1776"/>
  <object id="77" name="qiang" x="0.121917" y="581.578" width="31.5895" height="31.1776"/>
  <object id="78" name="qiang" x="0.121917" y="643.578" width="31.5895" height="31.1776"/>
  <object id="79" name="qiang" x="-0.378083" y="675.078" width="31.5895" height="31.1776"/>
  <object id="80" name="qiang" x="0.121917" y="706.078" width="31.5895" height="31.1776"/>
  <object id="81" name="qiang" x="-0.378083" y="737.078" width="31.5895" height="31.1776"/>
  <object id="82" name="qiang" x="-0.378083" y="768.578" width="31.5895" height="31.1776"/>
  <object id="83" name="qiang" x="-0.378083" y="800.078" width="31.5895" height="31.1776"/>
  <object id="84" name="qiang" x="0.121917" y="831.078" width="31.5895" height="31.1776"/>
  <object id="85" name="qiang" x="0.121917" y="862.078" width="31.5895" height="31.1776"/>
  <object id="86" name="qiang" x="0.121917" y="893.578" width="31.5895" height="31.1776"/>
  <object id="87" name="qiang" x="607.789" y="489.578" width="31.5895" height="31.1776"/>
  <object id="88" name="qiang" x="607.789" y="520.578" width="31.5895" height="31.1776"/>
  <object id="89" name="qiang" x="607.789" y="551.578" width="31.5895" height="31.1776"/>
  <object id="90" name="qiang" x="607.789" y="613.578" width="31.5895" height="31.1776"/>
  <object id="91" name="qiang" x="607.789" y="582.578" width="31.5895" height="31.1776"/>
  <object id="92" name="qiang" x="607.789" y="644.578" width="31.5895" height="31.1776"/>
  <object id="93" name="qiang" x="607.289" y="676.078" width="31.5895" height="31.1776"/>
  <object id="94" name="qiang" x="607.789" y="707.078" width="31.5895" height="31.1776"/>
  <object id="95" name="qiang" x="607.289" y="738.078" width="31.5895" height="31.1776"/>
  <object id="96" name="qiang" x="607.289" y="769.578" width="31.5895" height="31.1776"/>
  <object id="97" name="qiang" x="607.289" y="801.078" width="31.5895" height="31.1776"/>
  <object id="98" name="qiang" x="607.789" y="832.078" width="31.5895" height="31.1776"/>
  <object id="99" name="qiang" x="607.789" y="863.078" width="31.5895" height="31.1776"/>
  <object id="100" name="qiang" x="607.789" y="894.578" width="31.5895" height="31.1776"/>
 </objectgroup>
 <objectgroup id="3" name="_tmLayerTurnPoints">
  <object id="101" name="crystalA" x="287.788" y="64.2424" width="63.9394" height="63.9697"/>
  <object id="102" name="crystalB" x="288.133" y="831.837" width="63.9394" height="64.1515"/>
  <object id="103" name="tankA" x="158" y="126.411" width="31.5895" height="31.1776"/>
  <object id="104" name="tankB" x="414.205" y="735.745" width="31.5895" height="31.1776"/>
 </objectgroup>
 <objectgroup id="4" name="_tmLayerTurnAreas">
  <object id="106" name="roadA" x="33.0386" y="640.078" width="573.09" height="31.1776"/>
  <object id="107" name="roadA" x="32.7883" y="288.411" width="573.09" height="31.1776"/>
 </objectgroup>
</map>
